svg/color/dvi.svg

<?xml version="1.0" encoding="UTF-8" ?>
<!DOCTYPE svg PUBLIC "-//W3C//DTD SVG 1.1//EN" "http://www.w3.org/Graphics/SVG/1.1/DTD/svg11.dtd">
<svg width="216pt" height="250pt" viewBox="0 0 216 250" version="1.1" xmlns="http://www.w3.org/2000/svg">
<g id="#ffffffff">
<path fill="#ffffff" opacity="1.00" d=" M 0.00 0.00 L 216.00 0.00 L 216.00 250.00 L 0.00 250.00 L 0.00 0.00 M 23.26 13.83 C 22.83 18.97 24.45 23.89 24.76 28.97 C 34.25 95.73 43.12 162.64 52.68 229.40 C 72.26 229.62 91.83 229.50 111.41 229.46 C 141.80 182.49 172.17 135.51 202.65 88.60 C 203.60 87.41 203.67 85.87 203.85 84.43 C 163.76 60.97 123.38 38.01 83.23 14.66 C 80.77 13.09 77.76 13.69 75.01 13.58 C 57.76 13.84 40.50 13.24 23.26 13.83 Z" />
<path fill="#ffffff" opacity="1.00" d=" M 54.46 17.74 C 62.65 17.68 70.85 17.65 79.04 17.75 C 81.39 27.26 81.77 37.15 83.49 46.80 C 74.11 42.37 65.46 36.54 56.37 31.54 C 55.45 26.99 54.52 22.40 54.46 17.74 Z" />
<path fill="#ffffff" opacity="1.00" d=" M 83.24 19.16 C 110.55 35.06 137.89 50.88 165.23 66.72 C 174.66 72.31 184.32 77.50 193.55 83.38 C 180.06 84.10 166.52 83.48 153.00 83.70 C 150.45 83.53 147.67 84.20 145.33 82.92 C 126.12 71.95 107.10 60.63 87.76 49.89 C 85.72 39.73 85.03 29.36 83.24 19.16 Z" />
<path fill="#ffffff" opacity="1.00" d=" M 57.39 36.92 C 66.46 42.04 75.51 47.21 84.43 52.60 C 87.07 75.03 90.61 97.34 93.47 119.74 C 95.25 131.13 96.51 142.59 98.45 153.96 C 97.89 155.97 96.56 157.67 95.46 159.41 C 89.43 168.15 84.06 177.31 77.93 185.97 C 76.75 183.82 76.46 181.42 76.51 179.00 C 70.73 137.27 65.04 95.48 59.16 53.78 C 58.74 48.13 57.01 42.63 57.39 36.92 Z" />
<path fill="#ffffff" opacity="1.00" d=" M 88.49 55.10 C 104.69 63.85 120.35 73.59 136.44 82.55 C 138.64 83.71 140.67 85.16 142.60 86.73 C 128.96 107.84 114.99 128.74 101.68 150.06 C 99.65 140.41 99.01 130.56 97.31 120.88 C 94.56 98.94 90.89 77.10 88.49 55.10 Z" />
<path fill="#ffffff" opacity="1.00" d=" M 146.99 87.93 C 153.94 87.30 161.01 87.82 168.01 87.70 C 165.90 92.17 162.86 96.12 160.23 100.29 C 144.15 125.21 127.96 150.04 111.83 174.92 C 109.98 177.85 108.25 180.92 105.74 183.35 C 105.04 175.17 103.76 167.05 102.52 158.94 C 101.95 156.58 103.67 154.68 104.78 152.80 C 116.08 135.39 127.37 117.96 138.65 100.53 C 141.48 96.36 143.88 91.90 146.99 87.93 Z" />
<path fill="#ffffff" opacity="1.00" d=" M 79.62 191.66 C 86.12 181.45 92.86 171.41 99.32 161.18 C 100.06 170.48 102.61 179.63 102.56 188.97 C 96.15 199.54 88.96 209.64 82.58 220.24 C 81.06 213.56 80.52 206.74 79.35 200.01 C 79.48 197.24 77.72 194.11 79.62 191.66 Z" />
</g>
<g id="#27132fff">
<path fill="#27132f" opacity="1.00" d=" M 23.26 13.83 C 40.50 13.24 57.76 13.84 75.01 13.58 C 77.76 13.69 80.77 13.09 83.23 14.66 C 123.38 38.01 163.76 60.97 203.85 84.43 C 203.67 85.87 203.60 87.41 202.65 88.60 C 172.17 135.51 141.80 182.49 111.41 229.46 C 91.83 229.50 72.26 229.62 52.68 229.40 C 43.12 162.64 34.25 95.73 24.76 28.97 C 24.45 23.89 22.83 18.97 23.26 13.83 M 54.46 17.74 C 54.52 22.40 55.45 26.99 56.37 31.54 C 65.46 36.54 74.11 42.37 83.49 46.80 C 81.77 37.15 81.39 27.26 79.04 17.75 C 70.85 17.65 62.65 17.68 54.46 17.74 M 83.24 19.16 C 85.03 29.36 85.72 39.73 87.76 49.89 C 107.10 60.63 126.12 71.95 145.33 82.92 C 147.67 84.20 150.45 83.53 153.00 83.70 C 166.52 83.48 180.06 84.10 193.55 83.38 C 184.32 77.50 174.66 72.31 165.23 66.72 C 137.89 50.88 110.55 35.06 83.24 19.16 M 57.39 36.92 C 57.01 42.63 58.74 48.13 59.16 53.78 C 65.04 95.48 70.73 137.27 76.51 179.00 C 76.46 181.42 76.75 183.82 77.93 185.97 C 84.06 177.31 89.43 168.15 95.46 159.41 C 96.56 157.67 97.89 155.97 98.45 153.96 C 96.51 142.59 95.25 131.13 93.47 119.74 C 90.61 97.34 87.07 75.03 84.43 52.60 C 75.51 47.21 66.46 42.04 57.39 36.92 M 88.49 55.10 C 90.89 77.10 94.56 98.94 97.31 120.88 C 99.01 130.56 99.65 140.41 101.68 150.06 C 114.99 128.74 128.96 107.84 142.60 86.73 C 140.67 85.16 138.64 83.71 136.44 82.55 C 120.35 73.59 104.69 63.85 88.49 55.10 M 146.99 87.93 C 143.88 91.90 141.48 96.36 138.65 100.53 C 127.37 117.96 116.08 135.39 104.78 152.80 C 103.67 154.68 101.95 156.58 102.52 158.94 C 103.76 167.05 105.04 175.17 105.74 183.35 C 108.25 180.92 109.98 177.85 111.83 174.92 C 127.96 150.04 144.15 125.21 160.23 100.29 C 162.86 96.12 165.90 92.17 168.01 87.70 C 161.01 87.82 153.94 87.30 146.99 87.93 M 79.62 191.66 C 77.72 194.11 79.48 197.24 79.35 200.01 C 80.52 206.74 81.06 213.56 82.58 220.24 C 88.96 209.64 96.15 199.54 102.56 188.97 C 102.61 179.63 100.06 170.48 99.32 161.18 C 92.86 171.41 86.12 181.45 79.62 191.66 Z" />
</g>
</svg>

<?xml version="1.0" encoding="utf-8"?>
<!-- Generator: Adobe Illustrator 26.0.3, SVG Export Plug-In . SVG Version: 6.00 Build 0)  -->
<svg version="1.1" id="Layer_1" xmlns="http://www.w3.org/2000/svg" xmlns:xlink="http://www.w3.org/1999/xlink" x="0px" y="0px"
	 viewBox="0 0 216 250" style="enable-background:new 0 0 216 250;" xml:space="preserve">
<style type="text/css">
	.st0{fill:#FFFFFF;}
	.st1{fill:#27132F;}
</style>
<g id="_x23_ffffffff">
	<path class="st0" d="M54.5,17.7c8.2-0.1,16.4-0.1,24.6,0c2.3,9.5,2.7,19.4,4.4,29c-9.4-4.4-18-10.3-27.1-15.3
		C55.5,27,54.5,22.4,54.5,17.7z"/>
	<path class="st0" d="M83.2,19.2c27.3,15.9,54.7,31.7,82,47.6c9.4,5.6,19.1,10.8,28.3,16.7c-13.5,0.7-27,0.1-40.6,0.3
		c-2.6-0.2-5.3,0.5-7.7-0.8c-19.2-11-38.2-22.3-57.6-33C85.7,39.7,85,29.4,83.2,19.2z"/>
	<path class="st0" d="M57.4,36.9c9.1,5.1,18.1,10.3,27,15.7c2.6,22.4,6.2,44.7,9,67.1c1.8,11.4,3,22.8,5,34.2c-0.6,2-1.9,3.7-3,5.4
		c-6,8.7-11.4,17.9-17.5,26.6c-1.2-2.1-1.5-4.6-1.4-7C70.7,137.3,65,95.5,59.2,53.8C58.7,48.1,57,42.6,57.4,36.9z"/>
	<path class="st0" d="M88.5,55.1c16.2,8.8,31.9,18.5,48,27.5c2.2,1.2,4.2,2.6,6.2,4.2c-13.6,21.1-27.6,42-40.9,63.3
		c-2-9.6-2.7-19.5-4.4-29.2C94.6,98.9,90.9,77.1,88.5,55.1z"/>
	<path class="st0" d="M147,87.9c6.9-0.6,14-0.1,21-0.2c-2.1,4.5-5.1,8.4-7.8,12.6c-16.1,24.9-32.3,49.7-48.4,74.6
		c-1.8,2.9-3.6,6-6.1,8.4c-0.7-8.2-2-16.3-3.2-24.4c-0.6-2.4,1.2-4.3,2.3-6.1c11.3-17.4,22.6-34.8,33.9-52.3
		C141.5,96.4,143.9,91.9,147,87.9z"/>
	<path class="st0" d="M79.6,191.7c6.5-10.2,13.2-20.2,19.7-30.5c0.7,9.3,3.3,18.5,3.2,27.8c-6.4,10.6-13.6,20.7-20,31.3
		c-1.5-6.7-2.1-13.5-3.2-20.2C79.5,197.2,77.7,194.1,79.6,191.7z"/>
</g>
<g id="_x23_27132fff">
	<path class="st1" d="M23.3,13.8c17.2-0.6,34.5,0,51.8-0.2c2.8,0.1,5.8-0.5,8.2,1.1C123.4,38,163.8,61,203.9,84.4
		c-0.2,1.4-0.2,3-1.2,4.2c-30.5,46.9-60.8,93.9-91.2,140.9c-19.6,0-39.2,0.2-58.7-0.1C43.1,162.6,34.2,95.7,24.8,29
		C24.5,23.9,22.8,19,23.3,13.8 M54.5,17.7c0.1,4.7,1,9.2,1.9,13.8c9.1,5,17.7,10.8,27.1,15.3c-1.7-9.6-2.1-19.5-4.4-29
		C70.8,17.6,62.7,17.7,54.5,17.7 M83.2,19.2c1.8,10.2,2.5,20.6,4.5,30.7c19.3,10.7,38.4,22.1,57.6,33c2.3,1.3,5.1,0.6,7.7,0.8
		c13.5-0.2,27.1,0.4,40.6-0.3c-9.2-5.9-18.9-11.1-28.3-16.7C137.9,50.9,110.6,35.1,83.2,19.2 M57.4,36.9c-0.4,5.7,1.4,11.2,1.8,16.9
		C65,95.5,70.7,137.3,76.5,179c-0.1,2.4,0.2,4.8,1.4,7c6.1-8.7,11.5-17.8,17.5-26.6c1.1-1.7,2.4-3.4,3-5.4
		c-1.9-11.4-3.2-22.8-5-34.2c-2.9-22.4-6.4-44.7-9-67.1C75.5,47.2,66.5,42,57.4,36.9 M88.5,55.1c2.4,22,6.1,43.8,8.8,65.8
		c1.7,9.7,2.3,19.5,4.4,29.2c13.3-21.3,27.3-42.2,40.9-63.3c-1.9-1.6-4-3-6.2-4.2C120.3,73.6,104.7,63.8,88.5,55.1 M147,87.9
		c-3.1,4-5.5,8.4-8.3,12.6c-11.3,17.4-22.6,34.9-33.9,52.3c-1.1,1.9-2.8,3.8-2.3,6.1c1.2,8.1,2.5,16.2,3.2,24.4
		c2.5-2.4,4.2-5.5,6.1-8.4c16.1-24.9,32.3-49.7,48.4-74.6c2.6-4.2,5.7-8.1,7.8-12.6C161,87.8,153.9,87.3,147,87.9 M79.6,191.7
		c-1.9,2.4-0.1,5.6-0.3,8.3c1.2,6.7,1.7,13.6,3.2,20.2c6.4-10.6,13.6-20.7,20-31.3c0.1-9.3-2.5-18.5-3.2-27.8
		C92.9,171.4,86.1,181.4,79.6,191.7z"/>
</g>
</svg>
